usr/share/icons/biglinux-icons-material/16/actions/draw-watercolor.svg

<svg xmlns="http://www.w3.org/2000/svg" viewBox="0 0 16 16">
  <defs id="defs3051">
    <style type="text/css" id="current-color-scheme">
      .ColorScheme-Text {
        color:#363636;
      }
      </style>
  </defs>
 <path style="fill:currentColor;fill-opacity:1;stroke:none" 
     d="M 13.427734 2.0058594 A 1.500133 6.7506007 44.989453 0 0 8.0507812 5.8300781 A 1.500133 6.7506007 44.989453 0 0 5.3945312 8.9160156 C 6.2015113 9.1731156 6.8308906 9.802075 7.0878906 10.609375 A 1.500133 6.7506007 44.989453 0 0 10.171875 7.9511719 A 1.500133 6.7506007 44.989453 0 0 13.882812 2.1171875 A 1.500133 6.7506007 44.989453 0 0 13.634766 2.0058594 A 1.500133 6.7506007 44.989453 0 0 13.427734 2.0058594 z M 12 8 C 11.61083 9.27687 10.63869 10.37115 10.21875 11.25 C 10.0718 11.5113 10 11.80798 10 12.125 C 10 13.16375 10.892 14 12 14 C 13.108 14 14 13.16375 14 12.125 C 14 11.80798 13.89698 11.5113 13.75 11.25 C 13.33006 10.37115 12.38916 9.27687 12 8 z M 5 9.9960938 L 5 10 C 2.00008 10.8042 4.24994 12.7027 2 14 C 4.99992 14 6.5 12.499247 6.5 11.498047 C 6.5 10.998947 6.55095 10.079094 5 9.9960938 z "
     class="ColorScheme-Text"
     />
</svg>

<svg xmlns="http://www.w3.org/2000/svg" viewBox="0 0 16 16"><path d="M13.428 2.006A1.5 6.75 44.99 0 0 8.05 5.83a1.5 6.75 44.99 0 0-2.656 3.086 2.603 2.603 0 0 1 1.693 1.693 1.5 6.75 44.99 0 0 3.084-2.658 1.5 6.75 44.99 0 0 3.71-5.834 1.5 6.75 44.99 0 0-.247-.111 1.5 6.75 44.99 0 0-.207 0zM12 8c-.39 1.277-1.361 2.371-1.781 3.25a1.766 1.766 0 0 0-.219.875c0 1.039.892 1.875 2 1.875s2-.836 2-1.875c0-.317-.103-.614-.25-.875-.42-.879-1.36-1.973-1.75-3.25zM5 9.996V10c-3 .804-.75 2.703-3 4 3 0 4.5-1.5 4.5-2.502 0-.5.051-1.419-1.5-1.502z" style="fill:currentColor;fill-opacity:1;stroke:none;color:#dedede"/></svg>
